dist/img/tw.svg

<svg width="18" height="14" viewBox="0 0 18 14" fill="none" xmlns="http://www.w3.org/2000/svg">
<path d="M5.92067 13.9998C4.46819 13.9998 2.38573 13.7198 0.635758 12.4073C0.320763 12.1798 0.215765 11.7598 0.373262 11.3923C0.51326 11.0248 0.898253 10.8323 1.28325 10.9023C1.28325 10.9023 2.56072 11.1123 3.7157 10.7098C3.08572 10.3248 2.43823 9.67733 2.08823 8.57485C2.03573 8.39986 2.03573 8.22486 2.08823 8.04986C1.51074 7.47237 0.950752 6.56239 0.968252 5.17991C0.968252 4.93492 1.09075 4.70742 1.26575 4.54992C0.915753 3.69244 0.705757 2.43246 1.51074 1.04998C1.65074 0.822486 1.89574 0.664989 2.15823 0.629989C2.43823 0.61249 2.70072 0.717488 2.87572 0.927484C2.89322 0.944984 5.04568 3.42994 7.72313 3.79744C7.79313 1.69747 9.5081 0 11.6256 0C12.5356 0 13.428 0.314995 14.1105 0.892485C14.4255 0.857485 14.9155 0.734987 15.388 0.402493C15.633 0.227496 15.9655 0.192497 16.228 0.332494C16.508 0.454992 16.683 0.734987 16.718 1.03248C16.718 1.11998 16.718 1.29498 16.648 1.52247C16.7005 1.53997 16.753 1.57497 16.788 1.60997C17.0855 1.81997 17.2255 2.18746 17.1205 2.53746C17.0155 2.93995 16.4905 3.56994 15.563 4.42742C15.528 6.1249 14.9155 12.1798 7.88063 13.8248C7.88063 13.8248 7.07565 13.9998 5.92067 13.9998ZM1.59824 11.8998C3.05072 12.8273 4.73069 13.0373 5.92067 13.0373C6.97065 13.0373 7.68814 12.8798 7.70564 12.8798C14.373 11.3223 14.653 5.38991 14.6355 4.21743V4.00743L14.793 3.86743C15.4405 3.27244 15.808 2.86995 16.0005 2.62495C15.9655 2.62495 15.948 2.62496 15.913 2.64245L14.933 2.97495C14.7755 3.02745 14.6355 2.83495 14.7405 2.69495L15.388 1.88997C15.563 1.67997 15.6505 1.50497 15.703 1.36498C15.038 1.76747 14.408 1.87247 13.9705 1.88997H13.778L13.6205 1.74997C13.078 1.24248 12.3606 0.962484 11.6256 0.962484C9.99809 0.962484 8.68562 2.27496 8.68562 3.90243C8.68562 4.02493 8.68562 4.12993 8.70312 4.25243L8.73812 4.60242C8.75562 4.70742 8.66812 4.79492 8.56312 4.79492L8.21313 4.77742C5.23818 4.72492 2.80572 2.27496 2.24573 1.67997C1.63324 2.86995 1.98323 3.91993 2.40323 4.61992L2.98072 5.5824C3.06822 5.7399 2.91072 5.9149 2.75322 5.8274L1.94824 5.38991C1.98323 6.33489 2.35073 7.06988 3.05072 7.59487L3.47071 7.92736C3.57571 8.01486 3.55821 8.17236 3.43571 8.22486L3.05072 8.38236C3.45321 9.55484 4.32819 10.0273 4.99318 10.2023L5.62317 10.3773C5.76317 10.4123 5.79817 10.6048 5.67567 10.6923L5.15068 11.0598C3.9257 11.9173 2.38573 11.9523 1.59824 11.8998Z" fill="white"/>
</svg>

<svg fill="none" xmlns="http://www.w3.org/2000/svg" viewBox="0 0 18 14"><path d="M5.92 14c-1.452 0-3.534-.28-5.284-1.593a.836.836 0 01-.263-1.015c.14-.367.525-.56.91-.49 0 0 1.278.21 2.433-.192-.63-.385-1.278-1.033-1.628-2.135a.895.895 0 010-.525C1.511 7.472.951 6.562.968 5.18c0-.245.123-.473.298-.63-.35-.858-.56-2.118.245-3.5a.913.913 0 01.647-.42.85.85 0 01.718.297c.017.018 2.17 2.503 4.847 2.87C7.793 1.697 9.508 0 11.626 0c.91 0 1.802.315 2.485.892a2.808 2.808 0 001.277-.49.81.81 0 01.84-.07c.28.123.455.403.49.7 0 .088 0 .263-.07.49a.381.381 0 01.14.088.84.84 0 01.332.927c-.105.403-.63 1.033-1.557 1.89-.035 1.698-.648 7.753-7.682 9.398 0 0-.805.175-1.96.175zm-4.322-2.1c1.453.927 3.133 1.137 4.323 1.137 1.05 0 1.767-.157 1.785-.157 6.667-1.558 6.947-7.49 6.93-8.663v-.21l.157-.14c.648-.595 1.015-.997 1.207-1.242-.034 0-.052 0-.087.017l-.98.333c-.158.052-.297-.14-.192-.28l.647-.805c.175-.21.262-.385.315-.525a3.603 3.603 0 01-1.732.525h-.193l-.158-.14a2.935 2.935 0 00-4.935 2.152c0 .123 0 .228.018.35l.035.35c.018.105-.07.193-.175.193l-.35-.018C5.238 4.725 2.806 2.275 2.246 1.68c-.613 1.19-.263 2.24.157 2.94l.578.962c.087.158-.07.333-.228.245l-.805-.437c.035.945.403 1.68 1.103 2.205l.42.332c.105.088.087.245-.035.298l-.385.157c.402 1.173 1.277 1.645 1.942 1.82l.63.175c.14.035.175.228.053.315l-.525.368c-1.225.857-2.765.892-3.553.84z" fill="#fff"/></svg>
